build/images/icons/step5.svg

<svg height="60" width="60" xmlns="http://www.w3.org/2000/svg"><path d="M26 20v8h4c3.309 0 6 2.691 6 6v2c0 3.309-2.691 6-6 6s-6-2.691-6-6a1 1 0 112 0c0 2.206 1.794 4 4 4s4-1.794 4-4v-2c0-2.168-1.832-4-4-4h-5a1 1 0 01-1-1V19a1 1 0 011-1h10a1 1 0 110 2h-9zm4 38C14.561 58 2 45.439 2 30S14.561 2 30 2s28 12.561 28 28-12.561 28-28 28zm0-58C13.458 0 0 13.458 0 30s13.458 30 30 30 30-13.458 30-30S46.542 0 30 0z" fill="#008fcb" fill-rule="evenodd"/></svg>

<?xml version="1.0" ?><svg height="60px" version="1.1" viewBox="0 0 60 60" width="60px" xmlns="http://www.w3.org/2000/svg" xmlns:xlink="http://www.w3.org/1999/xlink"><title/><desc/><defs/><g fill="none" fill-rule="evenodd" id="People" stroke="none" stroke-width="1"><g fill="#000000" id="Icon-75"><path d="M26,20 L26,28 L30,28 C33.309,28 36,30.691 36,34 L36,36 C36,39.309 33.309,42 30,42 C26.691,42 24,39.309 24,36 C24,35.447 24.447,35 25,35 C25.553,35 26,35.447 26,36 C26,38.206 27.794,40 30,40 C32.206,40 34,38.206 34,36 L34,34 C34,31.832 32.168,30 30,30 L25,30 C24.447,30 24,29.553 24,29 L24,19 C24,18.447 24.447,18 25,18 L35,18 C35.553,18 36,18.447 36,19 C36,19.553 35.553,20 35,20 L26,20 Z M30,58 C14.561,58 2,45.439 2,30 C2,14.561 14.561,2 30,2 C45.439,2 58,14.561 58,30 C58,45.439 45.439,58 30,58 L30,58 Z M30,0 C13.458,0 0,13.458 0,30 C0,46.542 13.458,60 30,60 C46.542,60 60,46.542 60,30 C60,13.458 46.542,0 30,0 L30,0 Z" id="number-five" fill="#008fcb"/></g></g></svg>
